main/svg/wheat7.svg

<svg xmlns="http://www.w3.org/2000/svg" width="32" height="32"><path d="m2.004 4 3.992 4L10 4v23.996L6 32l-4.004-4.004ZM12 4l4 4 4-4v23.996L16 32l-4-4.004Zm9.996 0 4.008 4 3.992-4v23.996L26.004 32 22 27.996Zm0 0" style="stroke:none;fill-rule:nonzero;fill:#000;fill-opacity:1"/><path d="m4 4 2-4 2 4-2.004 4L4 4m10 0 2-4 1.996 4L16 8l-2-4m10 0 2.004-4 1.992 4L26 8l-2-4" style="stroke:none;fill-rule:nonzero;fill:#000;fill-opacity:1"/></svg>

<svg xmlns="http://www.w3.org/2000/svg" width="32" height="32"><path d="m2 4 4 4 4-4v24l-4 4-4-4Zm10 0 4 4 4-4v24l-4 4-4-4Zm10 0 4 4 4-4v24l-4 4-4-4Zm0 0" style="stroke:none;fill-rule:nonzero;fill:#000;fill-opacity:1"/><path d="m4 4 2-4 2 4-2 4-2-4m10 0 2-4 2 4-2 4-2-4m10 0 2-4 2 4-2 4-2-4" style="stroke:none;fill-rule:nonzero;fill:#000;fill-opacity:1"/></svg>
